icons/chevron-top.svg

<svg width="24" height="24" viewBox="0 0 24 24" fill="none" xmlns="http://www.w3.org/2000/svg">
<path fill-rule="evenodd" clip-rule="evenodd" d="M18.1804 15.1804C17.8875 15.4733 17.4126 15.4733 17.1197 15.1804L12.1197 10.1804C12.0559 10.1166 11.9949 10.1001 11.95 10.1001C11.9057 10.1001 11.8455 10.1163 11.7823 10.1785L6.88568 15.1751C6.59576 15.4709 6.12092 15.4757 5.82508 15.1858C5.52924 14.8959 5.52445 14.421 5.81437 14.1252L10.7197 9.11975C11.4126 8.42686 12.4875 8.42689 13.1804 9.11978L18.1804 14.1198C18.4732 14.4127 18.4732 14.8875 18.1804 15.1804Z" fill="black"/>
</svg>

<svg xmlns="http://www.w3.org/2000/svg" fill="none" viewBox="0 0 24 24">
  <path fill="#000" fill-rule="evenodd" d="M18.18 15.18a.75.75 0 0 1-1.06 0l-5-5a.24.24 0 0 0-.17-.08.239.239 0 0 0-.168.079l-4.896 4.996a.75.75 0 0 1-1.072-1.05L10.72 9.12a1.716 1.716 0 0 1 2.46 0l5 5a.75.75 0 0 1 0 1.06Z" clip-rule="evenodd"/>
</svg>
